Apricity Icons/24/panel/network-wireless-secure-signal-low.svg

<svg xmlns="http://www.w3.org/2000/svg" width="24" height="24" version="1.1">
 <defs>
  <style id="current-color-scheme" type="text/css">
   .ColorScheme-Text { color:#dfdfdf; } .ColorScheme-Highlight { color:#4285f4; }
  </style>
 </defs>
 <path style="fill:currentColor" class="ColorScheme-Text" d="m 17,13 c -1.108,0 -2,0.9109 -2,2.03125 V 16 h -1 v 4 h 6 V 16 H 19 V 15.03125 C 19,13.91135 18.108,13 17,13 Z m 0,1 c 0.554,0 1,0.4424 1,1 v 1 h -2 v -1 c 0,-0.5576 0.446,-1 1,-1 z"/>
 <path style="opacity:0.3;fill:currentColor" class="ColorScheme-Text" d="M 12,5 C 8.9494,5 6.0806,6.0732 4,8 l 8,11 1,-1.375 V 15 h 1.013672 C 14.033321,13.365092 15.356157,12 17,12 c 0.02882,0 0.05537,0.0089 0.08398,0.0098 L 20,8 C 17.919,6.0731 15.051,5 12,5 Z"/>
 <path style="fill:currentColor" class="ColorScheme-Text" d="M 12,13 A 7,7 0 0 0 8.3769531,14.017578 L 12,19 13,17.625 V 15 h 1.013672 c 0.0068,-0.562233 0.176124,-1.087145 0.451172,-1.541016 A 7,7 0 0 0 12,13 Z"/>
</svg>

<svg xmlns="http://www.w3.org/2000/svg" width="24" height="24"><defs><style id="current-color-scheme" type="text/css">.ColorScheme-Text{color:#dfdfdf}</style></defs><path class="ColorScheme-Text" d="M17 13c-1.108 0-2 .91-2 2.031V16h-1v4h6v-4h-1v-.969c0-1.12-.892-2.031-2-2.031zm0 1c.554 0 1 .442 1 1v1h-2v-1c0-.558.446-1 1-1z" fill="currentColor"/><path class="ColorScheme-Text" d="M12 5C8.95 5 6.08 6.073 4 8l8 11 1-1.375V15h1.014c.02-1.635 1.342-3 2.986-3 .029 0 .055.009.084.01L20 8c-2.081-1.927-4.949-3-8-3z" opacity=".3" fill="currentColor"/><path class="ColorScheme-Text" d="M12 13a7 7 0 0 0-3.623 1.018L12 19l1-1.375V15h1.014a3.039 3.039 0 0 1 .45-1.541A7 7 0 0 0 12 13z" fill="currentColor"/></svg>
